svg/24/folder--filled.svg

<svg width="24" height="24" viewBox="0 0 24 24" fill="currentColor" xmlns="http://www.w3.org/2000/svg"><path d="M2 5C2 3.89543 2.89543 3 4 3H8.17157C8.70201 3 9.21071 3.21071 9.58579 3.58579L11.7071 5.70711C11.8946 5.89464 12.149 6 12.4142 6H20C21.1046 6 22 6.89543 22 8V18C22 19.1046 21.1046 20 20 20H4C2.89543 20 2 19.1046 2 18L2 5Z"/></svg>

<svg xmlns="http://www.w3.org/2000/svg" width="24" height="24" fill="currentColor" viewBox="0 0 24 24">
  <path d="M2 5a2 2 0 0 1 2-2h4.172a2 2 0 0 1 1.414.586l2.121 2.121a1 1 0 0 0 .707.293H20a2 2 0 0 1 2 2v10a2 2 0 0 1-2 2H4a2 2 0 0 1-2-2V5Z"/>
</svg>
